X:93
T:Regatta THO4.93, The
M:6/8
L:1/8
Z:vmp. Peter Dunk 2010/11.from a transcription by Fynn Titford-Mock 2007
B:Thompson's Compleat Collection of 200 Favourite Country Dances Volume IV.
Q:3/8=100
K:A
A/G/|AGA EGA|BAB EAB|cdc BcA|d2 d d2 E|\
AGA EGA|BAB EAB|cdc BcA|A2 A A2:|
|:c/d/|ecA Ace|agf ede|fed cBA|GAB Bcd|\
ecA Ace|agf ede|fed cBA|EAG A2:|
